Modules/BetterCms.Module.Root/Scss/assets/icons/editor-number-list-active.svg

<svg height="17" width="19" xmlns="http://www.w3.org/2000/svg" viewBox="0 0 19 17"><path fill="#0d7ce7" fill-rule="evenodd" d="m7 3c0-.55.46-1 1-1h10c.55 0 1 .44 1 1 0 .55-.46 1-1 1h-10c-.55 0-1-.44-1-1m0 11c0-.55.46-1 1-1h10c.55 0 1 .44 1 1 0 .55-.46 1-1 1h-10c-.55 0-1-.44-1-1m-7 1.97l1.97-1.62c.73-.6 1.02-.92 1.02-1.42 0-.49-.33-.76-.79-.76-.46 0-.77.25-1.21.79l-.91-.73c.58-.8 1.15-1.23 2.2-1.23 1.23 0 2.04.72 2.04 1.83 0 1-.51 1.49-1.56 2.3l-.96.75h2.58v1.12h-4.38v-1.03m2.75-15.97l-1.75.52.28 1.1 1.06-.26v4.79h1.33v-6.15h-.92"/></svg>

<?xml version="1.0" encoding="utf-8"?>
<!-- Generator: Avocode 2.4.5 - http://avocode.com -->
<svg height="17" width="19" xmlns:xlink="http://www.w3.org/1999/xlink" xmlns="http://www.w3.org/2000/svg" viewBox="0 0 19 17">
    <path fill="#0d7ce7" fill-rule="evenodd" d="M 7 3 C 7 2.45 7.46 2 8 2 L 18 2 C 18.55 2 19 2.44 19 3 C 19 3.55 18.54 4 18 4 L 8 4 C 7.45 4 7 3.56 7 3 Z M 7 14 C 7 13.45 7.46 13 8 13 L 18 13 C 18.55 13 19 13.44 19 14 C 19 14.55 18.54 15 18 15 L 8 15 C 7.45 15 7 14.56 7 14 Z M 0 15.97 L 1.97 14.35 C 2.7 13.75 2.99 13.43 2.99 12.93 C 2.99 12.44 2.66 12.17 2.2 12.17 C 1.74 12.17 1.43 12.42 0.99 12.96 L 0.08 12.23 C 0.66 11.43 1.23 11 2.28 11 C 3.51 11 4.32 11.72 4.32 12.83 C 4.32 13.83 3.81 14.32 2.76 15.13 L 1.8 15.88 L 4.38 15.88 L 4.38 17 L 0 17 L 0 15.97 Z M 2.75 0 L 1 0.52 L 1.28 1.62 L 2.34 1.36 L 2.34 6.15 L 3.67 6.15 L 3.67 0 L 2.75 0 Z M 2.75 0" />
</svg>
